!!!OTL: Vom reichen Bauer.
!!!ARE: Europa, Mitteleuropa, Deutschland
!!!SCT: A0506B
!!!TXL: @@NDS
!!!YEM: Copyright 1995, estate of Helmut Schaffrath.
**kern	**text
*M4/4	*
*met(c|)	*
*clefC4	*
*k[b-]	*
*F:	*
=1	=1
{2F	Ho-
2c	-ho!
=2	=2
4.c	ſeind
8G	wir
4d	ſchier
4B-	im
=3	=3
2G	Dorf-
2F}	-fe,
=4	=4
{4F	da
4F	der
4E	rei-
4E	-che
=5	=5
4F	Bau-
4F	-er
2C}	ſaß,
=6	=6
{4F	der
4F	die
4E	Milch
4E	mit
=7	=7
4F	Semmel
4F	.
2C}	fraß,
=8	=8
{4F	der
4F	die
4E	ſchö-
4E	-ne
=9	=9
4F	Toch-
4F	-ter
2C}	hat.
==	==
!!!GTL: Einige Kinder-Reime
!!!AGN: Romanze, Ballade, Lied, Kinderlied
!! N. Zange, 1620 Lied 18.
!!!ONB: ESAC (Essen Associative Code) Database: ALTDEU
!!!AMT: simple quadruple
!!!AIN: vox
!!!EED: Helmut Schaffrath
!!!EEV: 1.0
!!!URL-scan: https://rosdok.uni-rostock.de/mcrviewer/recordIdentifier/rosdok_ppn738218359/iview2/phys_0686.iview2?x=-16.406782488349563&y=1849.6968188318424&scale=0.6395221764153846&rotation=0&layout=singlePageLayout&logicalDiv=log_0018
!!!ENC: Anna Maria Matuszewska
!!!EEV: 2024/19/03
*-	*-
